src/images/svg/linkedin.svg

<svg class="svg-icon" style="width: 1em;height: 1em;vertical-align: middle;fill: currentColor;overflow: hidden;" viewBox="0 0 1024 1024" version="1.1" xmlns="http://www.w3.org/2000/svg"><path d="M385.024 706.368V406.72H285.376v299.68h99.616zM335.2 365.76c34.72 0 56.384-23.04 56.384-51.808-0.64-29.376-21.664-51.744-55.68-51.744-34.144 0-56.384 22.4-56.384 51.744 0 28.8 21.632 51.84 55.072 51.84z m409.024 340.608v-171.808c0-92.064-49.152-134.912-114.656-134.912-52.928 0-76.608 29.12-89.792 49.504v-42.496h-99.616c1.312 28.16 0 299.712 0 299.712h99.616v-167.36c0-8.96 0.64-17.92 3.264-24.256 7.168-17.92 23.584-36.448 51.072-36.448 36.064 0 50.56 27.456 50.56 67.744v160.352h99.584zM512 64c247.424 0 448 200.544 448 448 0 247.424-200.576 448-448 448-247.456 0-448-200.576-448-448C64 264.544 264.544 64 512 64z" fill="#181818" /></svg>

<?xml version="1.0" encoding="UTF-8" standalone="no"?>
<!DOCTYPE svg PUBLIC "-//W3C//DTD SVG 1.1//EN" "http://www.w3.org/Graphics/SVG/1.1/DTD/svg11.dtd">
<svg width="100%" height="100%" viewBox="0 0 1024 1024" version="1.1" xmlns="http://www.w3.org/2000/svg" xmlns:xlink="http://www.w3.org/1999/xlink" xml:space="preserve" xmlns:serif="http://www.serif.com/" style="fill-rule:evenodd;clip-rule:evenodd;stroke-linejoin:round;stroke-miterlimit:2;">
    <g transform="matrix(1.142857,0,0,1.142857,-73.142857,-73.142857)">
        <path d="M385.024,706.368L385.024,406.72L285.376,406.72L285.376,706.4L384.992,706.4L385.024,706.368ZM335.2,365.76C369.92,365.76 391.584,342.72 391.584,313.952C390.944,284.576 369.92,262.208 335.904,262.208C301.76,262.208 279.52,284.608 279.52,313.952C279.52,342.752 301.152,365.792 334.592,365.792L335.2,365.76ZM744.224,706.368L744.224,534.56C744.224,442.496 695.072,399.648 629.568,399.648C576.64,399.648 552.96,428.768 539.776,449.152L539.776,406.656L440.16,406.656C441.472,434.816 440.16,706.368 440.16,706.368L539.776,706.368L539.776,539.008C539.776,530.048 540.416,521.088 543.04,514.752C550.208,496.832 566.624,478.304 594.112,478.304C630.176,478.304 644.672,505.76 644.672,546.048L644.672,706.4L744.256,706.4L744.224,706.368ZM512,64C759.424,64 960,264.544 960,512C960,759.424 759.424,960 512,960C264.544,960 64,759.424 64,512C64,264.544 264.544,64 512,64Z" style="fill:white;fill-rule:nonzero;"/>
    </g>
</svg>
